public/favicon.svg

<?xml version="1.0" encoding="UTF-8"?>
<!DOCTYPE svg PUBLIC "-//W3C//DTD SVG 1.1//EN" "http://www.w3.org/Graphics/SVG/1.1/DTD/svg11.dtd">
<svg xmlns="http://www.w3.org/2000/svg" version="1.1" width="312px" height="312px" style="shape-rendering:geometricPrecision; text-rendering:geometricPrecision; image-rendering:optimizeQuality; fill-rule:evenodd; clip-rule:evenodd" xmlns:xlink="http://www.w3.org/1999/xlink">
<g><path style="opacity:1" fill="#000000" d="M 65.5,31.5 C 73.6324,31.114 81.6324,31.7806 89.5,33.5C 89.5,38.8333 89.5,44.1667 89.5,49.5C 90.8333,49.5 92.1667,49.5 93.5,49.5C 93.5,52.1667 93.5,54.8333 93.5,57.5C 94.8333,57.5 96.1667,57.5 97.5,57.5C 97.5,58.8333 97.5,60.1667 97.5,61.5C 98.8333,61.5 100.167,61.5 101.5,61.5C 101.5,62.8333 101.5,64.1667 101.5,65.5C 102.833,65.5 104.167,65.5 105.5,65.5C 105.5,74.8333 105.5,84.1667 105.5,93.5C 106.833,93.5 108.167,93.5 109.5,93.5C 109.5,94.8333 109.5,96.1667 109.5,97.5C 110.833,97.5 112.167,97.5 113.5,97.5C 113.5,105.5 113.5,113.5 113.5,121.5C 112.167,121.5 110.833,121.5 109.5,121.5C 109.5,122.833 109.5,124.167 109.5,125.5C 110.833,125.5 112.167,125.5 113.5,125.5C 113.5,126.833 113.5,128.167 113.5,129.5C 117.5,129.5 121.5,129.5 125.5,129.5C 125.5,128.167 125.5,126.833 125.5,125.5C 129.5,125.5 133.5,125.5 137.5,125.5C 137.5,126.833 137.5,128.167 137.5,129.5C 144.167,129.5 150.833,129.5 157.5,129.5C 157.5,130.833 157.5,132.167 157.5,133.5C 158.833,133.5 160.167,133.5 161.5,133.5C 161.5,134.833 161.5,136.167 161.5,137.5C 162.833,137.5 164.167,137.5 165.5,137.5C 165.5,138.833 165.5,140.167 165.5,141.5C 166.833,141.5 168.167,141.5 169.5,141.5C 169.5,142.833 169.5,144.167 169.5,145.5C 172.167,145.5 174.833,145.5 177.5,145.5C 177.5,141.5 177.5,137.5 177.5,133.5C 178.833,133.5 180.167,133.5 181.5,133.5C 181.5,132.167 181.5,130.833 181.5,129.5C 185.5,129.5 189.5,129.5 193.5,129.5C 193.5,128.167 193.5,126.833 193.5,125.5C 194.833,125.5 196.167,125.5 197.5,125.5C 197.5,122.833 197.5,120.167 197.5,117.5C 198.833,117.5 200.167,117.5 201.5,117.5C 201.5,114.833 201.5,112.167 201.5,109.5C 202.833,109.5 204.167,109.5 205.5,109.5C 205.5,108.167 205.5,106.833 205.5,105.5C 206.833,105.5 208.167,105.5 209.5,105.5C 209.5,102.833 209.5,100.167 209.5,97.5C 210.833,97.5 212.167,97.5 213.5,97.5C 213.5,96.1667 213.5,94.8333 213.5,93.5C 214.833,93.5 216.167,93.5 217.5,93.5C 217.5,90.8333 217.5,88.1667 217.5,85.5C 218.833,85.5 220.167,85.5 221.5,85.5C 221.5,84.1667 221.5,82.8333 221.5,81.5C 222.833,81.5 224.167,81.5 225.5,81.5C 225.5,80.1667 225.5,78.8333 225.5,77.5C 226.833,77.5 228.167,77.5 229.5,77.5C 229.5,76.1667 229.5,74.8333 229.5,73.5C 232.167,73.5 234.833,73.5 237.5,73.5C 237.5,72.1667 237.5,70.8333 237.5,69.5C 238.833,69.5 240.167,69.5 241.5,69.5C 241.5,68.1667 241.5,66.8333 241.5,65.5C 242.833,65.5 244.167,65.5 245.5,65.5C 245.5,64.1667 245.5,62.8333 245.5,61.5C 249.5,61.5 253.5,61.5 257.5,61.5C 257.5,60.1667 257.5,58.8333 257.5,57.5C 264.167,57.5 270.833,57.5 277.5,57.5C 277.5,58.8333 277.5,60.1667 277.5,61.5C 280.167,61.5 282.833,61.5 285.5,61.5C 285.5,62.8333 285.5,64.1667 285.5,65.5C 286.833,65.5 288.167,65.5 289.5,65.5C 289.5,66.8333 289.5,68.1667 289.5,69.5C 290.833,69.5 292.167,69.5 293.5,69.5C 293.5,70.8333 293.5,72.1667 293.5,73.5C 294.833,73.5 296.167,73.5 297.5,73.5C 297.5,74.8333 297.5,76.1667 297.5,77.5C 298.833,77.5 300.167,77.5 301.5,77.5C 301.5,80.1667 301.5,82.8333 301.5,85.5C 302.833,85.5 304.167,85.5 305.5,85.5C 305.5,90.8333 305.5,96.1667 305.5,101.5C 304.167,101.5 302.833,101.5 301.5,101.5C 301.5,102.833 301.5,104.167 301.5,105.5C 302.833,105.5 304.167,105.5 305.5,105.5C 305.392,116.875 306.059,128.208 307.5,139.5C 307.097,144.867 306.43,150.201 305.5,155.5C 306.167,159.5 306.833,163.5 307.5,167.5C 306.506,172.137 305.839,176.803 305.5,181.5C 304.167,181.5 302.833,181.5 301.5,181.5C 301.5,182.833 301.5,184.167 301.5,185.5C 298.833,185.5 296.167,185.5 293.5,185.5C 293.5,188.167 293.5,190.833 293.5,193.5C 292.167,193.5 290.833,193.5 289.5,193.5C 289.5,194.833 289.5,196.167 289.5,197.5C 286.833,197.5 284.167,197.5 281.5,197.5C 281.5,200.167 281.5,202.833 281.5,205.5C 282.833,205.5 284.167,205.5 285.5,205.5C 285.5,208.167 285.5,210.833 285.5,213.5C 284.167,213.5 282.833,213.5 281.5,213.5C 281.5,216.167 281.5,218.833 281.5,221.5C 282.833,221.5 284.167,221.5 285.5,221.5C 285.5,226.833 285.5,232.167 285.5,237.5C 284.167,237.5 282.833,237.5 281.5,237.5C 281.5,240.167 281.5,242.833 281.5,245.5C 282.833,245.5 284.167,245.5 285.5,245.5C 285.5,252.167 285.5,258.833 285.5,265.5C 284.167,265.5 282.833,265.5 281.5,265.5C 281.5,268.167 281.5,270.833 281.5,273.5C 273.632,275.219 265.632,275.886 257.5,275.5C 257.5,273.5 257.5,271.5 257.5,269.5C 258.833,269.5 260.167,269.5 261.5,269.5C 261.5,262.833 261.5,256.167 261.5,249.5C 262.833,249.5 264.167,249.5 265.5,249.5C 265.5,246.833 265.5,244.167 265.5,241.5C 264.167,241.5 262.833,241.5 261.5,241.5C 261.5,238.833 261.5,236.167 261.5,233.5C 262.833,233.5 264.167,233.5 265.5,233.5C 265.5,232.167 265.5,230.833 265.5,229.5C 264.167,229.5 262.833,229.5 261.5,229.5C 261.5,222.833 261.5,216.167 261.5,209.5C 262.833,209.5 264.167,209.5 265.5,209.5C 265.5,208.167 265.5,206.833 265.5,205.5C 264.167,205.5 262.833,205.5 261.5,205.5C 261.5,202.833 261.5,200.167 261.5,197.5C 262.833,197.5 264.167,197.5 265.5,197.5C 265.5,196.167 265.5,194.833 265.5,193.5C 266.833,193.5 268.167,193.5 269.5,193.5C 269.5,192.167 269.5,190.833 269.5,189.5C 268.167,189.5 266.833,189.5 265.5,189.5C 265.5,186.833 265.5,184.167 265.5,181.5C 266.833,181.5 268.167,181.5 269.5,181.5C 269.5,180.167 269.5,178.833 269.5,177.5C 270.833,177.5 272.167,177.5 273.5,177.5C 273.5,176.167 273.5,174.833 273.5,173.5C 274.833,173.5 276.167,173.5 277.5,173.5C 277.5,172.167 277.5,170.833 277.5,169.5C 278.833,169.5 280.167,169.5 281.5,169.5C 281.5,168.167 281.5,166.833 281.5,165.5C 282.833,165.5 284.167,165.5 285.5,165.5C 285.5,162.833 285.5,160.167 285.5,157.5C 286.833,157.5 288.167,157.5 289.5,157.5C 289.5,156.167 289.5,154.833 289.5,153.5C 288.167,153.5 286.833,153.5 285.5,153.5C 285.5,150.833 285.5,148.167 285.5,145.5C 286.833,145.5 288.167,145.5 289.5,145.5C 289.5,140.167 289.5,134.833 289.5,129.5C 288.167,129.5 286.833,129.5 285.5,129.5C 285.5,116.167 285.5,102.833 285.5,89.5C 284.167,89.5 282.833,89.5 281.5,89.5C 281.5,88.1667 281.5,86.8333 281.5,85.5C 280.167,85.5 278.833,85.5 277.5,85.5C 277.5,84.1667 277.5,82.8333 277.5,81.5C 276.167,81.5 274.833,81.5 273.5,81.5C 273.5,80.1667 273.5,78.8333 273.5,77.5C 268.167,77.5 262.833,77.5 257.5,77.5C 257.5,78.8333 257.5,80.1667 257.5,81.5C 254.833,81.5 252.167,81.5 249.5,81.5C 249.5,82.8333 249.5,84.1667 249.5,85.5C 248.167,85.5 246.833,85.5 245.5,85.5C 245.5,86.8333 245.5,88.1667 245.5,89.5C 244.167,89.5 242.833,89.5 241.5,89.5C 241.5,90.8333 241.5,92.1667 241.5,93.5C 240.167,93.5 238.833,93.5 237.5,93.5C 237.5,94.8333 237.5,96.1667 237.5,97.5C 236.167,97.5 234.833,97.5 233.5,97.5C 233.5,100.167 233.5,102.833 233.5,105.5C 232.167,105.5 230.833,105.5 229.5,105.5C 229.5,109.5 229.5,113.5 229.5,117.5C 228.167,117.5 226.833,117.5 225.5,117.5C 225.5,118.833 225.5,120.167 225.5,121.5C 222.833,121.5 220.167,121.5 217.5,121.5C 217.5,122.833 217.5,124.167 217.5,125.5C 216.167,125.5 214.833,125.5 213.5,125.5C 213.5,126.833 213.5,128.167 213.5,129.5C 212.167,129.5 210.833,129.5 209.5,129.5C 209.5,130.833 209.5,132.167 209.5,133.5C 208.167,133.5 206.833,133.5 205.5,133.5C 205.5,134.833 205.5,136.167 205.5,137.5C 204.167,137.5 202.833,137.5 201.5,137.5C 201.5,138.833 201.5,140.167 201.5,141.5C 200.167,141.5 198.833,141.5 197.5,141.5C 197.5,146.833 197.5,152.167 197.5,157.5C 196.167,157.5 194.833,157.5 193.5,157.5C 193.5,158.833 193.5,160.167 193.5,161.5C 192.167,161.5 190.833,161.5 189.5,161.5C 189.5,162.833 189.5,164.167 189.5,165.5C 180.167,165.5 170.833,165.5 161.5,165.5C 161.5,164.167 161.5,162.833 161.5,161.5C 160.167,161.5 158.833,161.5 157.5,161.5C 157.5,158.833 157.5,156.167 157.5,153.5C 154.833,153.5 152.167,153.5 149.5,153.5C 149.5,152.167 149.5,150.833 149.5,149.5C 148.167,149.5 146.833,149.5 145.5,149.5C 145.5,148.167 145.5,146.833 145.5,145.5C 144.167,145.5 142.833,145.5 141.5,145.5C 141.5,146.833 141.5,148.167 141.5,149.5C 134.833,149.5 128.167,149.5 121.5,149.5C 121.5,148.167 121.5,146.833 121.5,145.5C 120.167,145.5 118.833,145.5 117.5,145.5C 117.5,146.833 117.5,148.167 117.5,149.5C 109.5,149.5 101.5,149.5 93.5,149.5C 93.5,148.167 93.5,146.833 93.5,145.5C 92.1667,145.5 90.8333,145.5 89.5,145.5C 89.5,142.833 89.5,140.167 89.5,137.5C 90.8333,137.5 92.1667,137.5 93.5,137.5C 93.5,136.167 93.5,134.833 93.5,133.5C 92.1667,133.5 90.8333,133.5 89.5,133.5C 89.5,129.5 89.5,125.5 89.5,121.5C 90.8333,121.5 92.1667,121.5 93.5,121.5C 93.5,116.167 93.5,110.833 93.5,105.5C 92.1667,105.5 90.8333,105.5 89.5,105.5C 89.5,97.5 89.5,89.5 89.5,81.5C 88.1667,81.5 86.8333,81.5 85.5,81.5C 85.5,80.1667 85.5,78.8333 85.5,77.5C 84.1667,77.5 82.8333,77.5 81.5,77.5C 81.5,73.5 81.5,69.5 81.5,65.5C 80.1667,65.5 78.8333,65.5 77.5,65.5C 77.5,64.1667 77.5,62.8333 77.5,61.5C 76.1667,61.5 74.8333,61.5 73.5,61.5C 73.5,60.1667 73.5,58.8333 73.5,57.5C 72.1667,57.5 70.8333,57.5 69.5,57.5C 69.5,58.8333 69.5,60.1667 69.5,61.5C 68.1667,61.5 66.8333,61.5 65.5,61.5C 65.5,62.8333 65.5,64.1667 65.5,65.5C 61.5,65.5 57.5,65.5 53.5,65.5C 53.5,69.5 53.5,73.5 53.5,77.5C 52.1667,77.5 50.8333,77.5 49.5,77.5C 49.5,78.8333 49.5,80.1667 49.5,81.5C 48.1667,81.5 46.8333,81.5 45.5,81.5C 45.5,90.8333 45.5,100.167 45.5,109.5C 46.8333,109.5 48.1667,109.5 49.5,109.5C 49.5,114.833 49.5,120.167 49.5,125.5C 48.1667,125.5 46.8333,125.5 45.5,125.5C 45.5,129.5 45.5,133.5 45.5,137.5C 46.8333,137.5 48.1667,137.5 49.5,137.5C 49.5,140.167 49.5,142.833 49.5,145.5C 48.1667,145.5 46.8333,145.5 45.5,145.5C 45.5,146.833 45.5,148.167 45.5,149.5C 44.1667,149.5 42.8333,149.5 41.5,149.5C 41.5,150.833 41.5,152.167 41.5,153.5C 40.1667,153.5 38.8333,153.5 37.5,153.5C 37.5,154.833 37.5,156.167 37.5,157.5C 30.8333,157.5 24.1667,157.5 17.5,157.5C 17.5,158.833 17.5,160.167 17.5,161.5C 14.8333,161.5 12.1667,161.5 9.5,161.5C 9.5,160.167 9.5,158.833 9.5,157.5C 7.5,157.5 5.5,157.5 3.5,157.5C 3.5,150.833 3.5,144.167 3.5,137.5C 5.5,137.5 7.5,137.5 9.5,137.5C 9.5,138.833 9.5,140.167 9.5,141.5C 12.1667,141.5 14.8333,141.5 17.5,141.5C 17.5,140.167 17.5,138.833 17.5,137.5C 21.5,137.5 25.5,137.5 29.5,137.5C 29.5,136.167 29.5,134.833 29.5,133.5C 28.1667,133.5 26.8333,133.5 25.5,133.5C 25.5,129.5 25.5,125.5 25.5,121.5C 26.8333,121.5 28.1667,121.5 29.5,121.5C 29.5,120.167 29.5,118.833 29.5,117.5C 30.8333,117.5 32.1667,117.5 33.5,117.5C 33.5,116.167 33.5,114.833 33.5,113.5C 32.1667,113.5 30.8333,113.5 29.5,113.5C 29.5,106.833 29.5,100.167 29.5,93.5C 28.1667,93.5 26.8333,93.5 25.5,93.5C 25.5,90.8333 25.5,88.1667 25.5,85.5C 26.8333,85.5 28.1667,85.5 29.5,85.5C 29.5,81.5 29.5,77.5 29.5,73.5C 30.8333,73.5 32.1667,73.5 33.5,73.5C 33.5,70.8333 33.5,68.1667 33.5,65.5C 34.8333,65.5 36.1667,65.5 37.5,65.5C 37.5,64.1667 37.5,62.8333 37.5,61.5C 38.8333,61.5 40.1667,61.5 41.5,61.5C 41.5,60.1667 41.5,58.8333 41.5,57.5C 42.8333,57.5 44.1667,57.5 45.5,57.5C 45.5,56.1667 45.5,54.8333 45.5,53.5C 46.8333,53.5 48.1667,53.5 49.5,53.5C 49.5,50.8333 49.5,48.1667 49.5,45.5C 50.8333,45.5 52.1667,45.5 53.5,45.5C 53.5,44.1667 53.5,42.8333 53.5,41.5C 54.8333,41.5 56.1667,41.5 57.5,41.5C 57.5,40.1667 57.5,38.8333 57.5,37.5C 58.8333,37.5 60.1667,37.5 61.5,37.5C 61.5,36.1667 61.5,34.8333 61.5,33.5C 63.4832,33.8432 64.8166,33.1765 65.5,31.5 Z"/></g>
<g><path style="opacity:1" fill="#000000" d="M 65.5,173.5 C 68.1667,173.5 70.8333,173.5 73.5,173.5C 73.5,174.833 73.5,176.167 73.5,177.5C 78.8333,177.5 84.1667,177.5 89.5,177.5C 89.5,178.833 89.5,180.167 89.5,181.5C 90.8333,181.5 92.1667,181.5 93.5,181.5C 93.5,182.833 93.5,184.167 93.5,185.5C 94.8333,185.5 96.1667,185.5 97.5,185.5C 97.5,189.5 97.5,193.5 97.5,197.5C 98.8333,197.5 100.167,197.5 101.5,197.5C 101.5,201.5 101.5,205.5 101.5,209.5C 100.167,209.5 98.8333,209.5 97.5,209.5C 97.5,212.167 97.5,214.833 97.5,217.5C 96.1667,217.5 94.8333,217.5 93.5,217.5C 93.5,218.833 93.5,220.167 93.5,221.5C 92.1667,221.5 90.8333,221.5 89.5,221.5C 89.5,222.833 89.5,224.167 89.5,225.5C 88.1667,225.5 86.8333,225.5 85.5,225.5C 85.5,226.833 85.5,228.167 85.5,229.5C 82.8333,229.5 80.1667,229.5 77.5,229.5C 77.5,228.167 77.5,226.833 77.5,225.5C 73.5,225.5 69.5,225.5 65.5,225.5C 65.5,224.167 65.5,222.833 65.5,221.5C 64.1667,221.5 62.8333,221.5 61.5,221.5C 61.5,220.167 61.5,218.833 61.5,217.5C 60.1667,217.5 58.8333,217.5 57.5,217.5C 57.5,214.833 57.5,212.167 57.5,209.5C 58.8333,209.5 60.1667,209.5 61.5,209.5C 61.5,208.167 61.5,206.833 61.5,205.5C 62.8333,205.5 64.1667,205.5 65.5,205.5C 65.5,204.167 65.5,202.833 65.5,201.5C 68.1667,201.5 70.8333,201.5 73.5,201.5C 73.5,202.833 73.5,204.167 73.5,205.5C 74.8333,205.5 76.1667,205.5 77.5,205.5C 77.5,202.833 77.5,200.167 77.5,197.5C 72.1667,197.5 66.8333,197.5 61.5,197.5C 61.5,196.167 61.5,194.833 61.5,193.5C 60.1667,193.5 58.8333,193.5 57.5,193.5C 57.5,192.167 57.5,190.833 57.5,189.5C 56.1667,189.5 54.8333,189.5 53.5,189.5C 53.5,186.833 53.5,184.167 53.5,181.5C 54.8333,181.5 56.1667,181.5 57.5,181.5C 57.5,180.167 57.5,178.833 57.5,177.5C 60.1667,177.5 62.8333,177.5 65.5,177.5C 65.5,176.167 65.5,174.833 65.5,173.5 Z"/></g>
<g><path style="opacity:1" fill="#000000" d="M 173.5,197.5 C 176.167,197.5 178.833,197.5 181.5,197.5C 181.5,198.833 181.5,200.167 181.5,201.5C 182.833,201.5 184.167,201.5 185.5,201.5C 185.5,202.833 185.5,204.167 185.5,205.5C 186.833,205.5 188.167,205.5 189.5,205.5C 189.5,206.833 189.5,208.167 189.5,209.5C 190.833,209.5 192.167,209.5 193.5,209.5C 193.5,212.167 193.5,214.833 193.5,217.5C 192.167,217.5 190.833,217.5 189.5,217.5C 189.5,218.833 189.5,220.167 189.5,221.5C 186.833,221.5 184.167,221.5 181.5,221.5C 181.5,222.833 181.5,224.167 181.5,225.5C 184.167,225.5 186.833,225.5 189.5,225.5C 189.5,226.833 189.5,228.167 189.5,229.5C 190.833,229.5 192.167,229.5 193.5,229.5C 193.5,232.167 193.5,234.833 193.5,237.5C 192.167,237.5 190.833,237.5 189.5,237.5C 189.5,238.833 189.5,240.167 189.5,241.5C 188.167,241.5 186.833,241.5 185.5,241.5C 185.5,242.833 185.5,244.167 185.5,245.5C 182.833,245.5 180.167,245.5 177.5,245.5C 177.5,244.167 177.5,242.833 177.5,241.5C 173.5,241.5 169.5,241.5 165.5,241.5C 165.5,240.167 165.5,238.833 165.5,237.5C 164.167,237.5 162.833,237.5 161.5,237.5C 161.5,230.833 161.5,224.167 161.5,217.5C 160.167,217.5 158.833,217.5 157.5,217.5C 157.5,214.833 157.5,212.167 157.5,209.5C 158.833,209.5 160.167,209.5 161.5,209.5C 161.5,208.167 161.5,206.833 161.5,205.5C 164.167,205.5 166.833,205.5 169.5,205.5C 169.5,204.167 169.5,202.833 169.5,201.5C 170.833,201.5 172.167,201.5 173.5,201.5C 173.5,200.167 173.5,198.833 173.5,197.5 Z"/></g>
<g><path style="opacity:1" fill="#000000" d="M 109.5,245.5 C 112.167,245.5 114.833,245.5 117.5,245.5C 117.5,246.833 117.5,248.167 117.5,249.5C 118.833,249.5 120.167,249.5 121.5,249.5C 121.5,252.167 121.5,254.833 121.5,257.5C 122.833,257.5 124.167,257.5 125.5,257.5C 125.5,260.167 125.5,262.833 125.5,265.5C 124.167,265.5 122.833,265.5 121.5,265.5C 121.5,266.833 121.5,268.167 121.5,269.5C 120.167,269.5 118.833,269.5 117.5,269.5C 117.5,270.833 117.5,272.167 117.5,273.5C 114.833,273.5 112.167,273.5 109.5,273.5C 109.5,272.167 109.5,270.833 109.5,269.5C 108.167,269.5 106.833,269.5 105.5,269.5C 105.5,262.833 105.5,256.167 105.5,249.5C 106.833,249.5 108.167,249.5 109.5,249.5C 109.5,248.167 109.5,246.833 109.5,245.5 Z"/></g>
</svg>

<svg
  xmlns="http://www.w3.org/2000/svg"
  width="312"
  height="312"
  style="
    shape-rendering: geometricPrecision;
    text-rendering: geometricPrecision;
    image-rendering: optimizeQuality;
    fill-rule: evenodd;
    clip-rule: evenodd;
  "
>
  <style>
    path {
      fill: #10100e;
    }
    @media (prefers-color-scheme: dark) {
      path {
        fill: #ffffe3;
      }
    }
  </style>
  <path
    fill="currentColor"
    d="M65.5 31.5c8.1324-.386 16.1324.2806 24 2v16h4v8h4v4h4v4h4v28h4v4h4v24h-4v4h4v4h12v-4h12v4h20v4h4v4h4v4h4v4h8v-12h4v-4h12v-4h4v-8h4v-8h4v-4h4v-8h4v-4h4v-8h4v-4h4v-4h4v-4h8v-4h4v-4h4v-4h12v-4h20v4h8v4h4v4h4v4h4v4h4v8h4v16h-4v4h4c-.108 11.375.559 22.708 2 34-.403 5.367-1.07 10.701-2 16 .667 4 1.333 8 2 12-.994 4.637-1.661 9.303-2 14h-4v4h-8v8h-4v4h-8v8h4v8h-4v8h4v16h-4v8h4v20h-4v8c-7.868 1.719-15.868 2.386-24 2v-6h4v-20h4v-8h-4v-8h4v-4h-4v-20h4v-4h-4v-8h4v-4h4v-4h-4v-8h4v-4h4v-4h4v-4h4v-4h4v-8h4v-4h-4v-8h4v-16h-4v-40h-4v-4h-4v-4h-4v-4h-16v4h-8v4h-4v4h-4v4h-4v4h-4v8h-4v12h-4v4h-8v4h-4v4h-4v4h-4v4h-4v4h-4v16h-4v4h-4v4h-28v-4h-4v-8h-8v-4h-4v-4h-4v4h-20v-4h-4v4h-24v-4h-4v-8h4v-4h-4v-12h4v-16h-4v-24h-4v-4h-4v-12h-4v-4h-4v-4h-4v4h-4v4h-12v12h-4v4h-4v28h4v16h-4v12h4v8h-4v4h-4v4h-4v4h-20v4h-8v-4h-6v-20h6v4h8v-4h12v-4h-4v-12h4v-4h4v-4h-4v-20h-4v-8h4v-12h4v-8h4v-4h4v-4h4v-4h4v-8h4v-4h4v-4h4v-4c1.9832.3432 3.3166-.3235 4-2Z"
  />
  <path
    fill="currentColor"
    d="M65.5 173.5h8v4h16v4h4v4h4v12h4v12h-4v8h-4v4h-4v4h-4v4h-8v-4h-12v-4h-4v-4h-4v-8h4v-4h4v-4h8v4h4v-8h-16v-4h-4v-4h-4v-8h4v-4h8v-4Zm108 24h8v4h4v4h4v4h4v8h-4v4h-8v4h8v4h4v8h-4v4h-4v4h-8v-4h-12v-4h-4v-20h-4v-8h4v-4h8v-4h4v-4Zm-64 48h8v4h4v8h4v8h-4v4h-4v4h-8v-4h-4v-20h4v-4Z"
  />
</svg>
